outputs/icons/device/nfc_round.svg

<svg xmlns="http://www.w3.org/2000/svg" width="1200" height="1200" fill="none"><g fill="#000" clip-path="url(#a)"><path d="M215.475 590.28c0 122.9 72.631 241.855 204.554 334.975a58.1 58.1 0 0 1 16.024 16.39 58.22 58.22 0 0 1-17.953 81.01 58.233 58.233 0 0 1-44.384 7.295 58.3 58.3 0 0 1-20.831-9.605C189.148 904.805 98.999 752.065 98.999 590.26c0-161.804 90.208-314.565 253.886-430.104a58.22 58.22 0 0 1 74.643 6.327L788.36 525.83a58.194 58.194 0 0 1 12.745 63.4 58.2 58.2 0 0 1-12.58 18.91 58.2 58.2 0 0 1-18.855 12.655 58.3 58.3 0 0 1-22.265 4.475 58.22 58.22 0 0 1-41.19-16.965L381.302 284.736C274.064 372.855 215.475 479.995 215.475 590.28"/><path d="M801.655 150.37a58.22 58.22 0 0 1 43.46 9.803C1008.81 275.712 1099 428.493 1099 590.295c0 161.805-90.19 314.545-253.885 430.085a58.16 58.16 0 0 1-74.625-6.31L409.659 654.725a58.208 58.208 0 0 1 40.946-99.455 58.23 58.23 0 0 1 41.195 16.96L816.715 895.8c107.24-88.1 165.83-195.24 165.83-305.525 0-122.919-72.65-241.874-204.555-334.991a58.18 58.18 0 0 1-23.795-37.661 58.204 58.204 0 0 1 47.46-67.253"/></g><defs><clipPath id="a"><path fill="#fff" d="M0 0h1200v1200H0z"/></clipPath></defs></svg>

<svg width="1200" height="1200" viewBox="0 0 1200 1200" fill="none" xmlns="http://www.w3.org/2000/svg"><g clip-path="url(#clip0_833_2316)"><path fill-rule="evenodd" d="M215.475 590.28C215.475 713.18 288.106 832.135 420.029 925.25V925.235C426.406 929.585 431.853 935.165 436.053 941.645C440.254 948.125 443.123 955.375 444.494 962.975C445.865 970.575 445.711 978.37 444.04 985.91C442.369 993.45 439.215 1000.58 434.762 1006.89C430.309 1013.195 424.644 1018.555 418.1 1022.655C411.555 1026.755 404.26 1029.51 396.641 1030.76C389.021 1032.01 381.228 1031.735 373.716 1029.95C366.204 1028.16 359.124 1024.895 352.885 1020.34C189.148 904.805 98.999 752.065 98.999 590.26C98.999 428.456 189.207 275.694 352.885 160.156C364.082 152.258 377.707 148.563 391.359 149.72C405.013 150.877 417.82 156.813 427.528 166.483L788.36 525.83C793.775 531.225 798.075 537.63 801.015 544.685C803.955 551.74 805.475 559.305 805.49 566.95C805.505 574.595 804.015 582.165 801.105 589.23C798.195 596.3 793.92 602.725 788.525 608.14C783.13 613.555 776.725 617.855 769.67 620.79C762.615 623.73 755.05 625.25 747.405 625.27C739.765 625.285 732.19 623.795 725.125 620.88C718.055 617.97 711.635 613.7 706.215 608.305L381.302 284.736C274.064 372.854 215.475 479.994 215.475 590.28ZM801.655 150.37C816.87 147.746 832.5 151.272 845.115 160.173C1008.81 275.711 1099 428.493 1099 590.295C1099 752.1 1008.81 904.84 845.115 1020.38C833.925 1028.285 820.305 1031.99 806.65 1030.835C793 1029.68 780.195 1023.745 770.49 1014.07L409.659 654.725C398.719 643.83 392.555 629.04 392.522 613.6C392.489 598.165 398.59 583.345 409.483 572.405C420.375 561.465 435.168 555.305 450.605 555.27C466.043 555.24 480.861 561.34 491.8 572.23L816.715 895.8C923.955 807.7 982.545 700.56 982.545 590.275C982.545 467.356 909.895 348.401 777.99 255.284C765.375 246.382 756.815 232.835 754.195 217.623C751.57 202.411 755.095 186.779 763.995 174.167C772.895 161.554 786.445 152.995 801.655 150.37Z" fill="#1D1E23"/></g><defs><clipPath id="clip0_833_2316"><path width="24" fill="white" d="M0 0H1200V1200H0V0z"/></clipPath></defs></svg>
